X: 1
T: Bodapolska ("generic")
O: Trad
N: Variants of this tune are found all over Scandinavia in various rhythms
N: Fiddlers should try to use an open string as a drone harmony throughout.
Z: John Chambers <jc@trillian.mit.edu>
M: 3/4
L: 1/8
K: D
|: "D"F>(A A)>F D>F \
| "Em"G>(B B)>G E>B \
| "A7"c>(e e)>c A>c \
|1,3 "D"d>(f f)>d A>G \
:|2,4 "D"d2 d4 :|
|: "D"f>(f f)>d f>f \
| "Em"g>(g g)>f e>d \
|1,3 "A7"c>(e e)>c e>g \
| "D"f>(f f)>e d2 \
:|2,4 "A7"c>(e e)>c A>c \
| "D"d2 d4 :|
